X:1
T:Madama Butterfly
T:Madama Butterfly
T:Atto II - Un bel dì vedremo
T:Giacomo Puccini
T:by IMSLP - Scritto con MuseScore, un software libero e gratuito: http://musescore.org/it
T:by IMSLP - Scritto con MuseScore, un software libero e gratuito: http://musescore.org/it
T:by IMSLP - Scritto con MuseScore, un software libero e gratuito: http://musescore.org/it
T:by IMSLP - Scritto con MuseScore, un software libero e gratuito: http://musescore.org/it
T:by IMSLP - Scritto con MuseScore, un software libero e gratuito: http://musescore.org/it
C:Giacomo Puccini
Z:by IMSLP - Scritto con MuseScore, un software libero e gratuito: http://musescore.org/it
%%score ( 1 2 ) { ( 3 4 ) | ( 5 6 7 ) }
L:1/8
Q:1/4=42
M:3/4
K:Gb
V:1 treble nm="Voice"
V:2 treble 
V:3 treble nm="Piano"
V:4 treble 
V:5 treble 
V:6 treble 
V:7 treble 
V:1
"^Andante molto calmo." (g2- g e g e | f2 f2) z (d | e2- e B e B) | (d2!>(! (d2 e)!>)! d | %4
w: Un * bel dì, ve\-|dre\- mo le|var- * siun fil di|fu\- mo sul\- l'e\-|
 A2 A F/ G/ A) (F | B2 B2) z (G | D2- D (D/E/)!<(! F D!<)! | G2!>(! G2-!>)! G) z | %8
w: stre- * mo con\- fin del|ma\- re. E|poi * la na\- veap\- pa\-|re. * *|
"^un poco mosso" (F G A2 B2 | (AG)) F4 |"^ritenuto" (!tenuto!B2 !tenuto!=c2 (3(B A G) | B4 B2) | %12
w: Poi la na\- ve|bian _ ca|en\- tra nel _ _|por\- to,|
"^un poco mosso" =c d e2 f2 | (ed) =c4 | %14
w: rom\- bail suo sa\-|lu- * to.|
"^con passione ritenuto" (!tenuto!f2 !tenuto!=g2) (3(!tenuto!f !tenuto!e3/2 !tenuto!d/) | %15
w: Ve\- di? È _ ve\-|
!pp! (f4!>(! f2 |"^dolcemente" f2!>)! e d"^rall." (3:2:2B2 =c | %17
w: nu\- to!|Io non gli scen\- doin\-|
 (!tenuto!d2 E)) z/ (G/ !fermata!B) z/ (c/ ||[M:2/4]"^a tempo con semplicità" F F A =c | %19
w: con\- tro. Io no. Mi|met\- to là sul|
 B B/ B/ B B) | z3/2 (F A=c) | z3/2 (B f f/ f/ | (f2 F/) F/ F/ F/ | =c (c3 | %24
w: ci\- glio del col\- le|ea spet\- to,|ea spet\- to gran|tem\- po e non mi|pe\- sa|
 A))"^rit." (B =c{/e} d |"^a tempo" F F2) z3/2 | z3 z3/2"^animando un poco" (=c | =c c c c | %28
w: * la lun\- gaat|te\- sa.|Eu\-|sci\- to dal\- la|
 =c A (3(Bc) d | =c2 (c2 | =c)) z3/2 (e2 | f f e e | =c2"^rall. un poco" e) (E | A2 B2 | %34
w: fol\- la cit- * ta\-|di\- na|_ un\-|uo\- mo,un pic\- ciol|pun\- to s'av\-|via per|
 =c2 (=dB) | =c4 | (=c2 c)) !fermata!z3/2 || %37
w: la col- *|li\-|na _|
[M:4/8]"^Sostenendo molto." (3z2 (A/ B/"^Lo stesso movimento" (3=c2 A/ (B/ | %38
w: Chi sa\- rà? chi sa\-|
 F)) z/ (F/ F/ F/ F/ F/ | (3:2:5F/ F) z/ (A/ B/ (3=c2 B/ (A/ | F)) z/"^rall." (F/ F/ F/ F/ F/ | %41
w: rà? E co\- me sa\- rà|giun\- to che di\- rà? che di\-|rà? Chia\- me\- rà "But\- ter\-|
"^Lento" A2{A} A F | E2 E2) | (A A/ A/ A3/2 F/ | E E/ E/ E/ E/ E/ E/ | %45
w: ~fly"~~dal\- la lon\-|ta\- na.|Io sen\- za dar ri\-|spo\- sta me ne sta\- rà na\-|
"^rall. molto" F2){F} z/ F/ F/ F/ | A (AA/) z/ (A/ A/ | %47
w: ~sco\-~~~~~~~~~sta un po' per|ce\- lia _ e~un *|
 d)"^con molto passione"!<(! !tenuto!d !tenuto!d3/2 d/!<)! || %48
w: po' per non mo\-|
[M:3/4]"^Andante come prima. con forza" (!>!g2- g e g e | f2 f) z z (d | e/ e/ e/ e/ e B e B | %51
w: ri- * real primo in\-|con\- tro, ed|e\- gli alquan\- toin pe\- na chia\- me\-|
 !breath!d) (d/ d/!<(! (d2!<)! e)!>(! d!>)! | A/ A/ A/ A/ (A !breath!F/)) (G/!<(! A/ A/ F/ F/!<)! | %53
w: rà, chia\- me\- rà _ Pic\-|ci\- na mo\- gliet\- ti\- na o\- lez\- zo di ver\-|
 B2 B2) z (G | D/ D/ D/ D/ D!<(! (D/E/) F D!<)! | G2 G2- G) z | %56
w: be\- na, i|no\- mi che mi da\- vaal * suo ve\-|ni\- re _|
 (3z2 G/ A/ (3B2 A/ G/ (3B2 (2:2:2B/ B/ | d2 d4 |!f! f2 f3/2 f/ !>!=g3/2 e/ | %59
w: Tut\- to que\- stoav\- ver\- ~~rà,~~~~~~te lo pro\-|met\- to.|Tien\- ti la tua pa\-|
 f2 !breath!f/ f/ f/ f/ !>!=g3/2 e/ |"^poco rall."!<(! f2"^cresc." !breath!f3 d!<)! | %61
w: u- ra, io con si\- cu\- ra|fe\- de l'a\-|
!ff!"^Largamente" (b4 b) B | z6 | z6 | z6 | z6 | z6 | z6 | z6 | z6 |] %70
w: spet\- * to.|||||||||
V:2
 x6 | x6 | x6 | x6 | x6 | x6 | x6 | x6 | x6 | x6 | x6 | x6 | x6 | x6 | x6 | x6 | x6 | x6 || %18
[M:2/4] x4 | x4 | x9/2 | x9/2 | x4 | x4 | x4 | x9/2 | x11/2 | x4 | x4 | x4 | x9/2 | x4 | x4 | x4 | %34
 x4 | x4 | x9/2 ||[M:4/8] x4 | x4 | x4 | x4 | x4 | x4 | x4 | x4 | F x3 | x3 A | x d/ d/ x2 || %48
[M:3/4] x6 | x6 | x6 | x6 | x6 | x6 | x6 | x6 | x4 (3:2:4B3/2 B/ B/ B/ | x6 | x6 | x6 | x6 | x6 | %62
 x6 | x6 | x6 | x6 | x6 | x6 | x6 | x6 |] %70
V:3
!pp! (g2 g)ege | (e2 f)d/e/ fd | (e2 e)(BeB | d4 (!tenuto!e!tenuto!d) | A2- A)(!tenuto!F/G/ AG | %5
 !tenuto!B4) (!tenuto!A!tenuto!G) | (D2 D)!<(! (D/E/ F!<)!D |!>(! G6)!>)! | %8
"_un poco mosso"!p! (FG A2 B2 | AG F4) |!mf! (!tenuto!B2 !tenuto!=c2 (3BAG | B6) | %12
 !tenuto![=CFA=c]!tenuto![DFAd] !tenuto![EFAe]2 !tenuto![FAf]2 | !tenuto!e!tenuto!d !tenuto!=c4 | %14
 !tenuto!f2 !tenuto!=g2 (3!tenuto!f!tenuto!e3/2d/ |!>(! (f6!>)! | f2) ed (3:2:2B2 =c | %17
!pp! (d2 E>G !fermata!B) z ||[M:2/4]!pp! [=CF=c]4 | [FBf]4 | [=CF=c]4 |!<(! [FBf]4!<)! | %22
 [=CF=c]2!>(! [FBf]2!>)! | [=CF=c]4 |!pp! ((([FBf]4 | [=CF=c])))!p! [CFAc]2 (((([CFAc] x3/2 | %26
 [=CFA=c])))) [CFAc]2 (((([CFAc] x2 | [=CFA=cCFAc])))) [CFAcCFAc]3/2 x7/2 | %28
 [=CFA=c][CFAc] (3:2:2[D=FGd]2 [DFGd] x3/2 | [=CFA=c] [CFAc]2 [CFAc] x3/2 | %30
 [=CFA=c][CFAc] e2 x3/2 | f2 (e2 x | =c2) ([De]2 | A2 B2 | =c2 =dB | =c4 | %36
 [=E=G=c]2- [EGc]) !fermata!z3/2 ||[M:4/8]!p! [FA=c] [FAc]2 ([F-A-c] | [F-A-=c]) [FAc]3- | %39
 [FAc] [FA=c]2- [FAc]- | [FAc]-"_dim." [FAc]2- [FAc] |!ppp! z ([Aa][Bb][dd'] | [ee']4) | %43
 z ([Aa][Bb][dd'] | [ee']4) | (fe/d/ =cB) | F4- | F z z2 || %48
[M:3/4] !^!g2- g!tenuto!e!tenuto!g!tenuto!e | f2-!>(! f(d/e/ fd)!>)! | ((e2 e)BeB) | %51
!<(! (d4!>(! (!tenuto!e)!tenuto!d)!<)!!>)! |!pp! A2- A(F/G/ AF) | (B4 AG | %54
 D2-) D!<(!(D/E/ FD)!<)! | G6 | (!///-![EGB]3 B,3) | (!///-![FBd]3 D3) | %58
!f! (!///-![Bdf]2 F2) !arpeggio!=g>e |!f! (!///-![Bdf]2 F2) !arpeggio!=g>e | %60
 (!///-![Bdf]2 F2) (f/4_g/4a/4b/4c'/4d'/4e'/4f'/4) |!fff! [gg']2- [gg'][ee'] [gg'][ee'] | %62
 [fa']2- [fa']([dd']/[ee']/[ff'][dd']) | [egbe']2- [egbe'][Bb] [ee'][Bb] | [fa]6 |!p! [ce]6 | %66
 !arpeggio![Bdfb]4 (([Acda][GBdg])) |!pp! [Dcd]2- [Dcd]D/E/ FD |!mf!!>(! B6-!>)! | %69
!p! [B,DB]2- [B,DB] z z2 |] %70
V:4
 z [GB]- [GB]3 z | z [Ad]- [Ad]3 z | z [GB]- [GB]3 z | z [FA]2 [FA]3 | z [CE]- [CE]3 z | %5
 z [DF]2 [DF]3 | x6 | B, [B,D]2 [B,D]2 [B,D] | [B,D]6- | [B,D]6 | z [DF]- [DF]4 | %11
 z [DF]2 [DF]2 [DF] | x6 | !tenuto![FA]4 !tenuto![FA]2 | z [A=c]2 [Ac]- !tenuto![Ac]2 | %15
 z [A=c]2 [Ac]2 [Ac] | [A=c][_GB] [GB]4 | z [EG] z2 !fermata!z2 ||[M:2/4] x4 | x4 | x4 | x4 | x4 | %23
 x4 | x4 | x11/2 | x6 | x6 | x11/2 | x11/2 | x3 z3/2 [FA] | z3/2 [FA] z3/2 [FA] | z3/2 [=CE] x3/2 | %33
 x4 | x4 | x4 | x9/2 ||[M:4/8] x4 | x4 | x4 | x4 | x4 | x4 | x4 | x4 | F4 | x4 | x4 || %48
[M:3/4] z [Bd] [Bd]3 z | z [Ad] [Ad]3 z | z [GB]2 G2 z | z [FA]2 z [FA]2 | z [CE]- [CE]4 | %53
 z [DF]2 [DF]2 z | x4 DC |{/G,} (!///-!D3"^cresc." B,3) | x6 | x6 | x4 [=GBe]2 | x4 [=GBe]2 | x6 | %61
 x6 | x6 | x6 | [dd']4 ([ee'][dd']) | ([A-a]2 [Aa])([Ff]/[Gg]/ [Aa][Ff]) | x6 | GE F C2 C | %68
 [B,D] [B,D]2 [B,D]2 [B,D]- | x z z4 |] %70
V:5
"^come da lontano" ((G2 G)EGE | (F2 F)E/D/ FD | (E2 E))(B, EB, | D4 (!tenuto!E!tenuto!D) | %4
[K:bass] (A,2 A,))(F,/G,/ A,F, | B,4) (!tenuto!A,!tenuto!G,) | z [G,C]2 [F,-C] ([F,-D][F,C]) | %7
 D,6 | (F,G, A,2 B,2 | (A,G,) F,4) |"^ritenuto" (!tenuto!B,2 !tenuto!=C2 (3B,A,G, | B,6) | %12
"^un poco mosso" (3!>![F,,,=C,,][F,,,C,,] z z2 z2 | !tenuto!E!tenuto!D !tenuto!=C4 | %14
"^con passione ritenuto" !tenuto!F2 !tenuto!=G2 (3!tenuto!F!tenuto!E3/2!tenuto!D/ | (F6 | %16
"^dolcemente" F2) ED"^rall." (3:2:2B,2 =C | (D2 E,>G, !fermata!B,) z ||[M:2/4]"^a tempo" [A,,F,]4 | %19
 [D,=G,]4 | [A,,F,]4 | [D,=G,]4 | [A,,F,]2 [D,G,]2 | [A,,F,]4 |"^rit." (([D,=G,]4 | %25
"^a tempo" [A,,F,])) z3/2 z3 |"^animando un poco" z6 | z6 | z3 .[B,,,B,,] z3/2 | F,,2- F,, z3/2 x | %30
 z3 (=C2 x/ | D2 =C2 x | A,2) (E,2 | [A,,A,]2 [B,,B,]2 | [=C,=C]2 [=D,=D][B,,B,] | (([=C,=C]4 | %36
 [=C,=C]2)) [C,C]) !fermata!z3/2 ||[M:4/8] z4 | z4 | E4- | E4 | z2 [A,DF]2 | [B,=CE]2- [B,CE] z | %43
 z2 [A,DF]2 | [B,=CE]2- [B,CE] z | z2"^rsll. molto" [A,D]2- |"^col canto" [A,D] z z2 | z4 || %48
[M:3/4]"^con molta passione" !^!G2- G!tenuto!E!tenuto!G!tenuto!E | F2- F(D/E/ FD) | ((C2 E)B,EB, | %51
 (D4) (E)D) | A,2- A,(F,/G,/ A,F,) | (B,4 A,G, |"^m.d." D,2) [F,C]2{/A,,,} B,,2 | %55
{/G,,,} [G,,D,] [G,,D,]2 [G,,D,]2 [G,,D,] | [E,,B,,] [E,,B,,]2 [E,,B,,]2 [E,,B,,] | %57
!<(! [B,,,F,,B,,] [B,,F,]2 [B,,D,F,] [D,F,B,][F,B,D]!<)! | %58
 z !arpeggio!!>![B,,,F,,B,,] z2 !>![E,=G,B,G] z | z !>![B,,,F,,B,,] z2 !>![E,=G,B,G] z | %60
 z"^poco rall." !arpeggio!!>![B,,,F,,D,]"^cresc," (!///-![D,F,A,]2!<(! A,,2)!<)! | G2- GEGE | %62
"^meno forte" F2-!>(! F"^dim."D/E/ FD!>)! | E2- EB,EB, | %64
"^rit." z!<(! [G,A,CE]!>(! [G,A,CE]2 [G,A,CE] z!<)!!>)! | z [A,CE]2!<(! [A,CE]2 [A,CE]!<)! | %66
 z!>(! [B,DF]2 [B,DF-] [B,DF][B,D]!>)! |"^sostenuto" C6 | G,6- | G,2- G, z z2 |] %70
V:6
 x6 | x6 | x6 | x6 |[K:bass] x6 | x6 | D,4- ([B,,D,-][A,,D,]) | G,,6 | x6 | x6 | x6 | x6 | x6 | %13
 x6 | x6 | x6 | x6 | x6 ||[M:2/4] x4 | x4 | x4 | x4 | x4 | x4 | x4 | x11/2 | x6 | x6 | x11/2 | %29
 F,,, z3/2 z3 | x11/2 | x5 | x4 | x4 | x4 | x4 | x9/2 ||[M:4/8] x4 | x4 | x4 | x4 | [D,,D,]4- | %42
 [D,,D,]2- [D,,D,] z | [D,,D,]4- | [D,,D,]2- [D,,D,] z |{/D,,} D,4- | D, x3 | x4 ||[M:3/4] x6 | %49
 x6 | x6 | x6 | x6 | x6 | D,6 | x6 | x6 | x6 | x6 | x6 | x6 | z [G,B,D]2 [G,B,D]2 [G,B,D] | %62
 z [G,A,C]2 [G,A,C]2 [G,A,C] | z [G,B,]2 [G,B,]2 G, |({G,,,G,,)} [G,,,G,,]6 | [G,,,G,,]6 | %66
 [G,,,G,,]6 | D,2 [B,,,B,,]2 [A,,,A,,] z | (!///-!G,,,3 G,,3) | !///-!G,,, G,, [G,,,G,,] z z2 |] %70
V:7
 x6 | x6 | x6 | x6 |[K:bass] x6 | x6 | x6 | x6 | x6 | x6 | x6 | x6 | x6 | x6 | x6 | x6 | x6 | x6 || %18
[M:2/4] x4 | x4 | x4 | x4 | x4 | x4 | x4 | x11/2 | x6 | x6 | x11/2 | x11/2 | x11/2 | x5 | x4 | x4 | %34
 x4 | x4 | x9/2 ||[M:4/8] x4 | x4 | x4 | x4 | x4 | x4 | x4 | x4 | x4 | x4 | x4 ||[M:3/4] x6 | x6 | %50
 x6 | x6 | x6 | x6 | x6 | x6 | x6 | x6 | x6 | x6 | x6 |({!>!G,,,G,,)} [G,,,G,,]6 | %62
({!>!G,,,G,,)} [G,,,G,,]6 |({!>!G,,,G,,)} [G,,,G,,]6 | x6 | x6 | x6 | x3!<(! D,/E,/ F,D,!<)! | x6 | %69
 x6 |] %70

